X:80
T:Tommy Hill's Favourite
R:hornpipe
D:Sean Keane: Jig It in Style
Z:id:hn-hornpipe-80
M:C|
K:D
(3ABc|d2fd ceAF|GFGB AFD2|(3gag fg efdf|(3efe (3dcB AGFA|
d2fd ceAF|GFGB AGFE|DdcB (3ABA (3GFE|(3DED CE D2:|
|:gf|eBef gfga|(3bag af gfef|gafg efdf|(3efe (3dcB A2 (3ABc|
d2fd ceAF|GFGB AGFE|DdcB (3ABA (3GFE|(3DED CE D2:|

